src/assets/img/logo-hacktoberfest-11--beige.svg

<svg width="203" height="82" viewBox="0 0 203 82" fill="none" xmlns="http://www.w3.org/2000/svg">
<g id="logo">
<path id="Vector" d="M89.4459 27.7517H92.2644V33.8603H97.0914V27.7517H99.9098V42.7044H97.0914V36.5512H92.2644V42.7044H89.4459V27.7517Z" fill="#F3F0E0"/>
<path id="Vector_2" d="M110.08 39.5002H104.995L104.268 42.7044H101.319L104.885 27.7517H110.184L113.75 42.7044H110.801L110.074 39.5002H110.08ZM105.594 36.8093H109.46L107.73 29.1609H107.345L105.594 36.8093Z" fill="#F3F0E0"/>
<path id="Vector_3" d="M120.44 40.4408C120.98 40.4408 121.425 40.3577 121.775 40.1945C122.125 40.0314 122.395 39.8089 122.588 39.5329C122.781 39.2541 122.911 38.9336 122.983 38.5717C123.054 38.2097 123.089 37.8359 123.089 37.4502V37.0646H125.908V37.4502C125.908 39.2303 125.442 40.601 124.507 41.5622C123.576 42.5235 122.217 43.0041 120.437 43.0041C118.657 43.0041 117.375 42.4849 116.378 41.4436C115.382 40.4052 114.883 38.8862 114.883 36.8925V33.5608C114.883 32.6084 115.011 31.7481 115.269 30.9856C115.524 30.2231 115.895 29.5823 116.378 29.0631C116.862 28.5439 117.446 28.1434 118.129 27.8675C118.811 27.5886 119.583 27.4521 120.437 27.4521C121.291 27.4521 122.104 27.5797 122.787 27.8378C123.469 28.093 124.045 28.4638 124.507 28.9474C124.97 29.431 125.32 30.0155 125.555 30.6978C125.789 31.3802 125.908 32.1516 125.908 33.006V33.3917H123.089V33.006C123.089 32.65 123.048 32.294 122.962 31.9379C122.876 31.5819 122.733 31.2615 122.535 30.9767C122.336 30.6919 122.066 30.4605 121.722 30.2825C121.38 30.1045 120.953 30.0155 120.44 30.0155C119.971 30.0155 119.565 30.1045 119.224 30.2825C118.882 30.4605 118.598 30.7038 118.369 31.0093C118.141 31.3149 117.975 31.6709 117.868 32.0774C117.761 32.4838 117.708 32.9081 117.708 33.3472V37.1061C117.708 37.5897 117.758 38.0347 117.856 38.4412C117.954 38.8476 118.111 39.2007 118.325 39.4973C118.538 39.794 118.82 40.0284 119.167 40.1916C119.517 40.3547 119.939 40.4378 120.437 40.4378L120.44 40.4408Z" fill="#F3F0E0"/>
<path id="Vector_4" d="M131.186 42.7044H128.367V27.7517H131.186V33.8811H131.806L135.758 27.7517H138.941V27.8793L134.328 35.0352V35.4209L139.199 42.5768V42.7044H135.888L131.809 36.575H131.189V42.7044H131.186Z" fill="#F3F0E0"/>
<path id="Vector_5" d="M140.733 27.7517H151.499V30.4426H147.527V42.7044H144.708V30.4426H140.736V27.7517H140.733Z" fill="#F3F0E0"/>
<path id="Vector_6" d="M153.464 33.5608C153.464 31.6235 153.95 30.1223 154.926 29.0542C155.902 27.9862 157.252 27.4521 158.973 27.4521C160.694 27.4521 162.046 27.9862 163.02 29.0542C163.996 30.1223 164.482 31.6264 164.482 33.5608V36.8925C164.482 38.8862 163.993 40.4022 163.02 41.4436C162.043 42.4819 160.694 43.0041 158.973 43.0041C157.252 43.0041 155.899 42.4849 154.926 41.4436C153.95 40.4052 153.464 38.8862 153.464 36.8925V33.5608ZM158.976 40.4408C159.489 40.4408 159.916 40.3577 160.257 40.1945C160.599 40.0314 160.878 39.8 161.091 39.5003C161.305 39.2007 161.453 38.8446 161.539 38.4323C161.625 38.0199 161.667 37.563 161.667 37.0646V33.3917C161.667 32.9229 161.616 32.4809 161.518 32.0685C161.417 31.6561 161.263 31.3001 161.05 31.0004C160.836 30.7008 160.557 30.4634 160.216 30.2854C159.875 30.1074 159.462 30.0184 158.976 30.0184C158.489 30.0184 158.08 30.1074 157.736 30.2854C157.394 30.4634 157.116 30.7008 156.902 31.0004C156.688 31.3001 156.531 31.6561 156.433 32.0685C156.332 32.4809 156.285 32.9229 156.285 33.3917V37.0646C156.285 37.563 156.326 38.0199 156.412 38.4323C156.499 38.8446 156.647 39.2007 156.86 39.5003C157.074 39.8 157.353 40.0314 157.694 40.1945C158.035 40.3577 158.463 40.4408 158.976 40.4408Z" fill="#F3F0E0"/>
<path id="Vector_7" d="M166.28 40.0135H167.689V30.4426H166.28V27.7517H172.837C173.549 27.7517 174.178 27.8526 174.727 28.0514C175.275 28.2501 175.738 28.5201 176.115 28.8643C176.492 29.2054 176.777 29.6149 176.969 30.0925C177.162 30.5702 177.257 31.0864 177.257 31.6412V31.8963C177.257 32.7508 177.02 33.4331 176.542 33.9464C176.065 34.4596 175.462 34.8156 174.738 35.0144V35.4001C175.465 35.5989 176.065 35.9579 176.542 36.48C177.02 36.9992 177.257 37.6875 177.257 38.5419V38.7971C177.257 39.3519 177.162 39.8681 176.969 40.3458C176.777 40.8234 176.492 41.2358 176.115 41.5859C175.738 41.936 175.275 42.2089 174.727 42.4077C174.178 42.6065 173.549 42.7073 172.837 42.7073H166.28V40.0164V40.0135ZM170.511 33.8603H172.561C173.16 33.8603 173.644 33.7357 174.014 33.4865C174.385 33.2373 174.569 32.8131 174.569 32.2167V32.0892C174.569 31.4899 174.385 31.0686 174.014 30.8194C173.644 30.5702 173.16 30.4456 172.561 30.4456H170.511V33.8633V33.8603ZM170.511 40.0135H172.561C173.16 40.0135 173.644 39.8859 174.014 39.6278C174.385 39.3726 174.569 38.9454 174.569 38.3461V38.2186C174.569 37.6193 174.385 37.1921 174.014 36.9369C173.644 36.6818 173.16 36.5512 172.561 36.5512H170.511V40.0105V40.0135Z" fill="#F3F0E0"/>
<path id="Vector_8" d="M179.909 27.7517H189.35V30.4426H182.728V33.8604H189.095V36.5513H182.728V40.0105H189.605V42.7014H179.906V27.7488L179.909 27.7517Z" fill="#F3F0E0"/>
<path id="Vector_9" d="M202.614 42.7044H199.796V38.2186C199.796 37.8774 199.707 37.5985 199.529 37.3849C199.351 37.1713 199.054 37.0645 198.642 37.0645H195.396V42.7044H192.578V27.7517H198.304C199.072 27.7517 199.748 27.8585 200.333 28.0721C200.917 28.2857 201.404 28.5824 201.795 28.9592C202.187 29.336 202.487 29.7751 202.691 30.2735C202.899 30.7719 203 31.3059 203 31.8756V32.3888C203 33 202.837 33.5755 202.508 34.1096C202.178 34.6436 201.674 35.053 200.991 35.3378V35.7235C201.49 35.7799 201.884 35.9727 202.178 36.299C202.469 36.6254 202.617 37.0407 202.617 37.5392V42.7073L202.614 42.7044ZM195.396 34.3736H198.087C198.769 34.3736 199.292 34.2134 199.648 33.893C200.004 33.5726 200.182 33.1216 200.182 32.5371V32.282C200.182 31.7836 200.004 31.3534 199.648 30.9885C199.292 30.6265 198.772 30.4426 198.087 30.4426H195.396V34.3736Z" fill="#F3F0E0"/>
<path id="Vector_10" d="M89.4459 48.0444H99.0168V50.7353H92.2673V54.1531H98.8892V56.8439H92.2673V62.9971H89.4489V48.0444H89.4459Z" fill="#F3F0E0"/>
<path id="Vector_11" d="M102.177 48.0445H111.617V50.7354H104.995V54.1531H111.362V56.844H104.995V60.3033H111.872V62.9942H102.174V48.0415L102.177 48.0445Z" fill="#F3F0E0"/>
<path id="Vector_12" d="M122.383 52.6165C122.383 52.0172 122.152 51.498 121.689 51.056C121.226 50.6139 120.574 50.3944 119.734 50.3944C119.022 50.3944 118.458 50.5397 118.046 50.8334C117.633 51.1242 117.426 51.5217 117.426 52.0202C117.426 52.2753 117.476 52.5067 117.574 52.7144C117.675 52.9221 117.847 53.106 118.096 53.2692C118.346 53.4324 118.672 53.5777 119.078 53.7083C119.485 53.8358 120.001 53.9575 120.627 54.0702C122.193 54.355 123.389 54.8327 124.217 55.5002C125.042 56.1707 125.457 57.1587 125.457 58.47V58.7251C125.457 59.4223 125.332 60.0542 125.083 60.615C124.834 61.1787 124.475 61.6593 124.003 62.0568C123.534 62.4544 122.965 62.7629 122.294 62.9765C121.624 63.1901 120.87 63.2969 120.031 63.2969C119.049 63.2969 118.182 63.1575 117.435 62.8816C116.687 62.6027 116.064 62.22 115.566 61.7275C115.067 61.235 114.69 60.6595 114.432 59.9979C114.177 59.3363 114.047 58.6124 114.047 57.8291V57.1883H116.865V57.7016C116.865 58.5975 117.126 59.3155 117.645 59.8495C118.165 60.3836 118.974 60.6506 120.069 60.6506C120.924 60.6506 121.556 60.4666 121.971 60.0958C122.383 59.7249 122.591 59.2829 122.591 58.7726C122.591 58.5293 122.549 58.2979 122.463 58.0784C122.377 57.8588 122.229 57.6571 122.015 57.4791C121.802 57.3011 121.508 57.1408 121.14 56.9984C120.769 56.856 120.301 56.7344 119.731 56.6365C118.977 56.5089 118.286 56.3398 117.66 56.1351C117.034 55.9304 116.488 55.6545 116.025 55.3133C115.563 54.9721 115.204 54.5449 114.946 54.0316C114.69 53.5184 114.56 52.8924 114.56 52.1507V52.0231C114.56 51.412 114.684 50.8453 114.934 50.3261C115.183 49.8069 115.533 49.353 115.981 48.9703C116.429 48.5846 116.969 48.2879 117.604 48.0743C118.236 47.8607 118.945 47.7539 119.728 47.7539C120.612 47.7539 121.395 47.8785 122.078 48.1277C122.76 48.3769 123.336 48.7152 123.798 49.1424C124.261 49.5696 124.611 50.0621 124.846 50.6169C125.08 51.1717 125.199 51.7561 125.199 52.3673V53.1357H122.38V52.6224L122.383 52.6165Z" fill="#F3F0E0"/>
<path id="Vector_13" d="M127.296 48.0444H138.063V50.7353H134.09V62.9971H131.272V50.7353H127.299V48.0444H127.296Z" fill="#F3F0E0"/>
<path id="Vector_14" d="M44.947 54.3223H18.2458V63.2227H44.947V54.3223Z" fill="#F3F0E0"/>
<path id="Vector_15" d="M62.718 27.6389H53.8176V63.2405H62.718V27.6389Z" fill="#F3F0E0"/>
<path id="Vector_16" d="M36.1949 18.7207H27.2946V54.3223H36.1949V18.7207Z" fill="#F3F0E0"/>
<path id="Vector_17" d="M27.2946 27.6211H18.3942V36.5215H27.2946V27.6211Z" fill="#F3F0E0"/>
<path id="Vector_18" d="M53.8176 36.5393H44.9172V45.4397H53.8176V36.5393Z" fill="#F3F0E0"/>
<path id="Vector_19" d="M71.6184 54.3401H62.718V63.2405H71.6184V54.3401Z" fill="#F3F0E0"/>
<path id="Vector_20" d="M18.3051 81.3379L9.19707 72.3782V9.96868H71.6036L80.7117 18.9284V0.644043H0V81.3557L18.3051 81.3379Z" fill="#F3F0E0"/>
</g>
</svg>

<svg xmlns="http://www.w3.org/2000/svg" width="203" height="82" fill="none"><g fill="#F3F0E0"><path d="M89.446 27.752h2.818v6.108h4.827v-6.108h2.819v14.952H97.09v-6.153h-4.827v6.153h-2.818zM110.08 39.5h-5.085l-.727 3.204h-2.949l3.566-14.952h5.299l3.566 14.952h-2.949l-.727-3.204zm-4.486-2.69h3.866l-1.73-7.65h-.385zM120.44 40.44q.81 0 1.335-.245.524-.247.813-.662.288-.419.395-.961.106-.543.106-1.122v-.385h2.819v.385q0 2.67-1.401 4.112-1.398 1.443-4.07 1.442c-1.78 0-3.062-.52-4.059-1.56q-1.494-1.56-1.495-4.552v-3.331q0-1.43.386-2.575.384-1.145 1.109-1.923a4.84 4.84 0 0 1 1.751-1.195c.682-.28 1.454-.416 2.308-.416s1.667.128 2.35.386a4.54 4.54 0 0 1 1.72 1.11 4.7 4.7 0 0 1 1.048 1.75c.234.682.353 1.454.353 2.308v.386h-2.819v-.386q.001-.534-.127-1.068a2.8 2.8 0 0 0-.427-.961 2.2 2.2 0 0 0-.813-.695q-.513-.266-1.282-.267-.704 0-1.216.267a2.5 2.5 0 0 0-.855.727 3.1 3.1 0 0 0-.501 1.068q-.16.611-.16 1.27v3.76q0 .725.148 1.334.147.611.469 1.056.32.447.842.695.524.245 1.27.246zM131.186 42.704h-2.819V27.752h2.819v6.13h.62l3.952-6.13h3.183v.127l-4.613 7.156v.386l4.871 7.156v.127h-3.311l-4.079-6.129h-.62v6.13zM140.733 27.752h10.766v2.69h-3.972v12.262h-2.819V30.443h-3.972v-2.691zM153.464 33.56q-.001-2.905 1.462-4.506 1.465-1.602 4.047-1.602c1.721 0 3.073.534 4.047 1.602q1.463 1.603 1.462 4.507v3.331q-.001 2.99-1.462 4.552-1.465 1.558-4.047 1.56c-1.721 0-3.074-.52-4.047-1.56q-1.463-1.56-1.462-4.552zm5.512 6.88q.77 0 1.281-.245.514-.245.834-.695t.448-1.068q.129-.619.128-1.367v-3.673q-.001-.705-.149-1.324A3.1 3.1 0 0 0 161.05 31a2.3 2.3 0 0 0-.834-.715q-.511-.267-1.24-.267c-.487 0-.896.09-1.24.267q-.513.267-.834.715-.322.45-.469 1.069a5.6 5.6 0 0 0-.148 1.323v3.673q-.001.748.127 1.367.13.62.448 1.068.322.45.834.694.512.247 1.282.247M166.28 40.014h1.409v-9.571h-1.409v-2.691h6.557q1.067 0 1.89.3a4.1 4.1 0 0 1 1.388.812q.566.511.854 1.229.289.715.288 1.548v.255q.001 1.282-.715 2.05-.717.771-1.804 1.068v.386q1.09.298 1.804 1.08.716.78.715 2.062v.255q0 .832-.288 1.549-.288.715-.854 1.24-.566.524-1.388.822-.823.299-1.89.3h-6.557v-2.694m4.231-6.154h2.05q.898 0 1.453-.373.556-.376.555-1.27v-.128c0-.6-.184-1.02-.555-1.27q-.555-.373-1.453-.373h-2.05v3.417zm0 6.154h2.05q.898 0 1.453-.386.556-.383.555-1.282v-.127q0-.9-.555-1.282-.555-.384-1.453-.386h-2.05v3.4619999999999997M179.909 27.752h9.441v2.69h-6.622v3.418h6.367v2.691h-6.367v3.46h6.877v2.69h-9.699V27.75zM202.614 42.704h-2.818V38.22q0-.513-.267-.834-.268-.32-.887-.32h-3.246v5.64h-2.818V27.751h5.726q1.152 0 2.029.32.876.321 1.462.887.589.566.896 1.314.31.748.309 1.603v.513q0 .918-.492 1.72-.494.802-1.517 1.229v.386q.747.085 1.187.575.438.491.439 1.24v5.168zm-7.218-8.33h2.691c.682 0 1.205-.16 1.561-.481q.534-.48.534-1.356v-.255q0-.747-.534-1.293t-1.561-.546h-2.691zM89.446 48.044h9.57v2.691h-6.749v3.418h6.622v2.69h-6.622v6.154H89.45V48.044zM102.177 48.045h9.44v2.69h-6.622v3.418h6.367v2.691h-6.367v3.46h6.877v2.69h-9.698V48.042zM122.383 52.617q0-.899-.694-1.561-.695-.663-1.955-.662-1.069 0-1.688.44a1.38 1.38 0 0 0-.62 1.186q0 .383.148.694.15.311.522.555.374.244.982.44.61.191 1.549.361 2.349.428 3.59 1.43 1.239 1.004 1.24 2.97v.255c0 .697-.125 1.33-.374 1.89a3.94 3.94 0 0 1-1.08 1.442 4.9 4.9 0 0 1-1.709.92q-1.005.32-2.263.32-1.474-.001-2.596-.415-1.122-.418-1.869-1.154a4.9 4.9 0 0 1-1.134-1.73 6 6 0 0 1-.385-2.169v-.64h2.818v.513c0 .895.261 1.614.78 2.148q.78.8 2.424.8 1.281.001 1.902-.554.619-.557.62-1.323 0-.365-.128-.695a1.5 1.5 0 0 0-.448-.599q-.321-.267-.875-.48a7.6 7.6 0 0 0-1.409-.363 14.4 14.4 0 0 1-2.071-.5 5.8 5.8 0 0 1-1.635-.823 3.56 3.56 0 0 1-1.079-1.281q-.385-.77-.386-1.881v-.128q0-.917.374-1.697t1.047-1.356q.671-.576 1.623-.896.949-.32 2.124-.32 1.326 0 2.35.374 1.025.373 1.72 1.014.695.642 1.048 1.475.352.834.353 1.75v.769h-2.819v-.514zM127.296 48.044h10.767v2.691h-3.973v12.262h-2.818V50.735h-3.973v-2.69zM44.947 54.322H18.246v8.9h26.701zM62.718 27.639h-8.9V63.24h8.9zM36.195 18.72h-8.9v35.602h8.9zM27.295 27.621h-8.9v8.9h8.9zM53.818 36.54h-8.9v8.9h8.9z"/><path d="M71.618 54.34h-8.9v8.9h8.9zM18.305 81.338l-9.108-8.96V9.968h62.407l9.108 8.96V.644H0v80.712z"/></g></svg>
